src/images/icons/handlebars-logo.svg

<?xml version="1.0" encoding="UTF-8"?>
<svg width="224px" height="54px" viewBox="0 0 224 54" version="1.1" xmlns="http://www.w3.org/2000/svg" xmlns:xlink="http://www.w3.org/1999/xlink">
    <!-- Generator: Sketch 52 (66869) - http://www.bohemiancoding.com/sketch -->
    <title>handlebars-logo</title>
    <desc>Created with Sketch.</desc>
    <g id="Logos" stroke="none" stroke-width="1" fill="none" fill-rule="evenodd">
        <g id="handlebars-logo" fill="#423426">
            <path d="M82.4393362,0.000373305603 C90.22638,-0.0331563773 98.2120483,2.19068896 104.264409,7.20141702 C107.365839,9.70003158 109.870958,12.8348392 111.998515,16.1725667 C115.826631,10.0135559 121.418305,4.78031265 128.313726,2.25774832 C136.716331,-0.88184926 146.213995,-0.664994947 154.602163,2.41233322 C161.928958,5.07467714 168.335255,9.71440144 174.145241,14.8170095 C178.690417,18.8105254 182.896532,23.1802705 187.577333,27.0244268 C190.043952,29.0161771 192.694321,30.8825176 195.727939,31.9145351 C199.759492,33.2844622 204.527793,31.9920453 207.410911,28.9003473 C210.080967,26.0067792 209.91603,21.0051956 206.974724,18.3624469 C205.104416,16.7560703 201.906299,17.0791745 200.582865,19.2202843 C199.425242,20.9185409 200.074491,23.0357009 200.980989,24.6803972 C198.572119,22.9298865 196.159313,20.4891868 196.1685,17.3060442 C195.669751,13.6260526 198.412432,10.3797697 201.697612,9.09214278 C208.108722,6.54040327 216.147765,8.74029883 220.194192,14.3589157 C224.085308,19.6017388 224.395057,26.4936128 223.716934,32.7392782 C222.897936,38.6718549 219.564194,44.2090425 214.621331,47.6430046 C207.682598,52.5723034 198.887119,54.1007344 190.518639,53.99492 C182.474783,53.7776302 174.513177,51.9692046 167.060383,48.978531 C154.59735,43.9917527 142.933628,37.0994434 130.063284,33.1159429 C125.794169,31.4664566 121.253805,30.5742187 116.688941,30.299014 C113.054638,30.2750643 109.609333,30.1061095 106.178467,30.3377691 C101.991602,30.7383835 97.8292367,31.5918664 93.9092462,33.1202974 C80.8210276,37.1721636 68.9827436,44.2377822 56.2821491,49.2345759 C45.5581749,53.3870312 33.6765785,55.316512 22.2941684,53.010802 C15.9268087,51.727965 9.58832394,48.9258415 5.29033427,43.9338378 C1.61228062,39.6895025 -0.151277641,34.0081808 0.0224094412,28.4422534 C-0.18102757,23.1898504 0.977032145,17.6095531 4.46608625,13.5193673 C7.71232845,9.64211667 12.9413159,7.67431619 17.9616163,8.10846026 C21.193421,8.25781976 24.4694131,9.66127649 26.4657208,12.2513356 C28.0359046,14.3010008 28.1325918,17.1083497 27.444406,19.5050688 C26.606158,21.6609839 24.8762872,23.3444353 22.9963542,24.6368521 C23.9557894,23.0256856 24.5372255,20.8989457 23.4032282,19.2154943 C22.0076066,16.9729246 18.5719273,16.7464904 16.7549942,18.5884457 C14.5163121,20.8797858 14.0460007,24.6224823 15.5483721,27.4293957 C17.1763057,30.3717343 20.5446101,32.0499602 23.8052897,32.3922242 C28.7385279,32.8167884 33.0172676,29.7734254 36.6371339,26.8219424 C44.1284284,20.4020967 50.8733496,13.0569189 59.1840797,7.62598119 C66.0361882,3.0537517 74.1089188,-0.037946332 82.4388987,0.00080875603 L82.4393362,0.000373305603 Z" id="Path"></path>
        </g>
    </g>
</svg>

<svg width="224" height="54" viewBox="0 0 224 54" xmlns="http://www.w3.org/2000/svg">
    <path d="M82.44 0c7.786-.033 15.772 2.19 21.824 7.201 3.102 2.499 5.607 5.634 7.735 8.972 3.828-6.16 9.42-11.393 16.315-13.915 8.402-3.14 17.9-2.923 26.288.154 7.327 2.663 13.733 7.302 19.543 12.405 4.545 3.994 8.752 8.363 13.432 12.207 2.467 1.992 5.117 3.859 8.15 4.89 4.032 1.37 8.8.078 11.684-3.014 2.67-2.893 2.505-7.895-.436-10.538-1.87-1.606-5.069-1.283-6.392.858-1.158 1.699-.509 3.816.398 5.46-2.409-1.75-4.822-4.19-4.813-7.374-.498-3.68 2.244-6.926 5.53-8.214 6.41-2.552 14.45-.352 18.496 5.267 3.891 5.243 4.201 12.135 3.523 18.38-.82 5.933-4.153 11.47-9.096 14.904-6.938 4.93-15.734 6.458-24.102 6.352-8.044-.217-16.006-2.026-23.459-5.016-12.463-4.987-24.126-11.88-36.997-15.863-4.269-1.65-8.81-2.542-13.374-2.817-3.634-.024-7.08-.193-10.51.039-4.187.4-8.35 1.254-12.27 2.782-13.088 4.052-24.926 11.118-37.627 16.115-10.724 4.152-22.605 6.082-33.988 3.776-6.367-1.283-12.706-4.085-17.004-9.077C1.612 39.69-.15 34.008.022 28.442-.18 23.19.977 17.61 4.466 13.52c3.246-3.877 8.475-5.845 13.496-5.41 3.231.149 6.507 1.552 8.504 4.142 1.57 2.05 1.667 4.857.978 7.254-.838 2.156-2.568 3.84-4.448 5.132.96-1.611 1.541-3.738.407-5.422-1.395-2.242-4.831-2.469-6.648-.627-2.239 2.292-2.709 6.034-1.207 8.841 1.628 2.943 4.997 4.621 8.257 4.963 4.934.425 9.212-2.619 12.832-5.57 7.491-6.42 14.236-13.765 22.547-19.196C66.036 3.054 74.11-.038 82.44.001z" fill="#423426" fill-rule="evenodd"/>
</svg>
